public/img/field-2.svg

<svg width="73" height="70" viewBox="0 0 73 70" fill="none" xmlns="http://www.w3.org/2000/svg">
<g clip-path="url(#clip0)">
<path d="M64.218 46.9334C64.5568 45.135 64.5481 43.2884 64.1924 41.4934L69.0777 29.7035C69.0782 29.6957 69.0782 29.6878 69.0777 29.68C69.8694 27.5126 71.0295 25.4983 72.507 23.7259C72.8747 23.3376 73.0226 22.7905 72.9006 22.2699L70.8974 13.6192C70.8736 13.5288 70.8377 13.442 70.7908 13.3611C70.7822 13.3451 70.779 13.3259 70.7705 13.311C70.762 13.296 70.7246 13.2598 70.7033 13.232C70.6597 13.1681 70.6092 13.1091 70.5529 13.056C70.5158 13.0299 70.477 13.0064 70.4366 12.9856C70.3846 12.9473 70.3293 12.9138 70.2713 12.8854C70.1909 12.855 70.1071 12.8346 70.0217 12.8246C69.9972 12.8246 69.9758 12.8086 69.9513 12.8064C69.7469 12.7928 69.5428 12.8383 69.3636 12.9376C69.3476 12.9462 69.3284 12.9494 69.3124 12.959H69.3017L61.77 17.6598C61.3139 17.9422 61.0307 18.4354 61.0169 18.9718C60.8077 21.2749 60.201 23.5243 59.2238 25.6203V25.632L56.7822 31.5339C55.5839 30.8968 54.301 30.4335 52.9721 30.1579C53.4751 26.6858 53.6601 23.1751 53.5246 19.6694C55.5102 17.287 56.4632 14.2109 56.1721 11.1232C55.5054 4.90669 49.8873 0.417087 49.6473 0.228287C49.2866 -0.0557742 48.7846 -0.0771374 48.401 0.175252C48.0175 0.427642 47.8385 0.897149 47.9566 1.34082C48.506 3.40375 48.0302 5.58082 43.9726 10.0576C42.1496 11.8179 41.5717 14.5057 42.5102 16.8598C42.8691 17.7601 43.3832 18.5905 44.0292 19.3131C43.771 20.9611 43.5684 22.5216 43.4286 24.0416C43.188 26.5557 43.126 29.0836 43.243 31.6064C42.2915 32.1223 41.4006 32.7431 40.587 33.4571L35.4137 11.3344C35.4137 11.312 35.3924 11.296 35.386 11.2758C35.3686 11.2046 35.3436 11.1356 35.3113 11.0699L30.027 1.31095C29.4982 0.334179 28.381 -0.167757 27.2995 0.0855357C26.218 0.338828 25.4399 1.28467 25.3998 2.39469L24.9988 13.4827C24.999 13.5627 25.008 13.6425 25.0254 13.7206C25.0254 13.7376 25.0254 13.7526 25.0254 13.7686L30.3033 36.2934C29.4707 36.3301 28.6442 36.4534 27.8372 36.6614L22.0313 22.64C21.5658 21.5682 20.331 21.0624 19.2473 21.4998L10.3737 25.1734C9.2877 25.6267 8.77159 26.8719 9.21851 27.9606L17.0926 46.9558C12.4777 47.1981 8.89549 51.0721 9.0146 55.6918C9.13372 60.3116 12.9108 63.9959 17.5321 64H64.4654C67.5141 63.9558 70.3076 62.2885 71.7937 59.6262C73.2797 56.9639 73.2325 53.711 71.6699 51.0929C70.1073 48.4748 67.2666 46.8892 64.218 46.9334ZM63.131 19.3238L67.6025 16.5334L66.0196 20.3563C65.7939 20.9006 66.0523 21.5248 66.5966 21.7504C67.141 21.9761 67.7651 21.7177 67.9908 21.1734L69.5737 17.3504L70.7588 22.4843C69.4909 24.0311 68.4493 25.7504 67.6654 27.5904C66.5533 28.1059 65.2763 28.1327 64.1436 27.6642C63.0109 27.1957 62.1258 26.2747 61.7028 25.1243C62.4519 23.2684 62.9328 21.3153 63.131 19.3238ZM60.6777 27.6982C61.3834 28.5609 62.2991 29.2276 63.3369 29.6342C64.1618 29.989 65.0491 30.1761 65.947 30.1846C66.1631 30.1838 66.3789 30.1706 66.5934 30.1451L63.1897 38.3584C62.1705 36.1113 60.5938 34.162 58.6094 32.6955L60.6777 27.6982ZM46.0644 20.08L51.4233 20.4075C51.4564 21.4038 51.4446 22.4342 51.4116 23.4806C49.6263 23.6081 47.8322 23.5215 46.0676 23.2224C45.9332 23.2032 45.802 23.1883 45.6686 23.1702C45.7753 22.1654 45.9054 21.1478 46.0622 20.08H46.0644ZM45.5556 11.4902C48.3876 8.36589 49.8553 5.96269 50.1966 3.70349C52.2323 5.79794 53.576 8.46675 54.0462 11.3494C54.2703 13.8588 53.4944 16.3552 51.8873 18.2955C49.7803 18.1675 47.6964 18.0395 45.6356 17.9115C44.7501 17.0837 44.2407 15.9304 44.2252 14.7183C44.2097 13.5063 44.6894 12.3403 45.5534 11.4902H45.5556ZM45.4745 25.296L45.7838 25.3366C47.1583 25.5491 48.5457 25.6671 49.9364 25.6896C50.378 25.6896 50.843 25.6544 51.3092 25.6182C51.2121 26.991 51.0532 28.4246 50.8516 29.9062C50.5881 29.8923 50.33 29.8667 50.0654 29.8667C48.455 29.8696 46.8567 30.1447 45.338 30.6806C45.2888 28.8846 45.3336 27.0873 45.4724 25.296H45.4745ZM37.2238 37.7696L34.1721 24.7702C34.0294 24.2062 33.4612 23.8605 32.8948 23.9932C32.3284 24.1258 31.9727 24.6879 32.0953 25.2566L34.8377 36.9568C34.0837 36.6872 33.3048 36.4932 32.5124 36.3776L27.8308 16.399C28.4866 16.6976 29.1987 16.8525 29.9193 16.8534C29.9865 16.8534 30.058 16.8438 30.1262 16.8406L30.8804 20.0608C30.9616 20.4377 31.24 20.7415 31.6084 20.8552C31.9769 20.969 32.378 20.875 32.6576 20.6095C32.9372 20.344 33.0517 19.9482 32.9572 19.5744L32.202 16.352C32.9257 16.0316 33.564 15.5457 34.0654 14.9334L38.8249 35.2843C38.2068 36.0552 37.6703 36.8881 37.2238 37.7696ZM30.7065 14.623C29.3423 14.8875 27.9495 14.3298 27.1449 13.1968L27.2804 9.44002C27.6515 9.50934 28.0282 9.54504 28.4057 9.54669C28.7704 9.54822 29.134 9.50777 29.4894 9.42616C30.209 9.23718 30.8821 8.90244 31.467 8.44269L33.2633 11.7579C33.0493 13.1334 32.0486 14.2555 30.7065 14.6251V14.623ZM27.7849 2.16215C27.9302 2.1285 28.0802 2.19563 28.1518 2.32642L30.4388 6.55576C30.0262 6.92897 29.5336 7.20265 28.9988 7.35576C28.4521 7.45609 27.8897 7.42945 27.355 7.27789L27.5289 2.47149C27.5347 2.32244 27.6396 2.19572 27.7849 2.16215ZM20.0654 23.4667L20.8804 25.4358L16.9337 27.0699C16.4658 27.2664 16.2011 27.7653 16.3008 28.2629C16.4005 28.7604 16.8369 29.1189 17.3444 29.12C17.4845 29.1197 17.6233 29.0922 17.7529 29.039L21.6996 27.4038L22.5156 29.375L20.5412 30.1931C20.0706 30.3878 19.8033 30.8881 19.903 31.3875C20.0027 31.8869 20.4415 32.2462 20.9508 32.2454C21.0906 32.2449 21.2289 32.2173 21.3582 32.1643L23.3326 31.3462L24.1486 33.3174L20.1988 34.9547C19.7282 35.1494 19.4609 35.6497 19.5606 36.1491C19.6603 36.6485 20.0991 37.0078 20.6084 37.007C20.7482 37.0066 20.8865 36.979 21.0158 36.9259L24.9625 35.2918L25.8254 37.375C22.3496 38.9615 19.8008 42.0637 18.9188 45.7814L11.1876 27.1403L20.0654 23.4667ZM64.4654 61.8667H17.5321C13.9975 61.8667 11.1321 59.0013 11.1321 55.4667C11.1321 51.9321 13.9975 49.0667 17.5321 49.0667C18.1502 49.0646 18.7651 49.1538 19.3572 49.3312C19.677 49.4278 20.0236 49.369 20.2937 49.1723C20.5637 48.9756 20.726 48.6637 20.7321 48.3296C20.808 44.5281 23.0056 41.089 26.4235 39.423C29.8413 37.757 33.9042 38.1446 36.9454 40.4267C37.2142 40.6267 37.5613 40.6889 37.8828 40.5945C38.2042 40.5001 38.4627 40.2602 38.5806 39.9467C40.6646 34.3928 46.4242 31.1258 52.2605 32.1874C58.0968 33.2489 62.3373 38.3347 62.3321 44.2667C62.3342 45.4866 62.1526 46.6998 61.7934 47.8656C61.6813 48.2283 61.7705 48.6233 62.0275 48.9027C62.2845 49.1821 62.6706 49.3039 63.0414 49.2224C63.5091 49.1195 63.9866 49.0673 64.4654 49.0667C68.0001 49.0667 70.8654 51.9321 70.8654 55.4667C70.8654 59.0013 68.0001 61.8667 64.4654 61.8667Z" fill="#472880"/>
<path d="M50.2634 16.7467C50.5982 16.7479 50.9142 16.5919 51.1167 16.3253C52.4484 14.5229 52.963 12.2446 52.5354 10.0448C52.4444 9.66867 52.1569 9.37131 51.784 9.26779C51.4111 9.16426 51.0114 9.27081 50.7395 9.5462C50.4677 9.82159 50.3663 10.2226 50.4746 10.5941C50.73 12.1573 50.3489 13.7576 49.4165 15.0379C49.174 15.3611 49.1351 15.7935 49.3157 16.1549C49.4964 16.5163 49.8658 16.7445 50.2698 16.7445L50.2634 16.7467Z" fill="#472880"/>
<path d="M48.8601 49.0667C48.0669 49.0691 47.2846 49.2515 46.5721 49.6C44.6533 46.9744 41.0704 46.2052 38.2429 47.8119C35.4154 49.4186 34.2425 52.8904 35.5161 55.8827C35.6837 56.276 36.0699 56.5313 36.4974 56.5312C36.6412 56.5316 36.7835 56.5025 36.9156 56.4459C37.1758 56.335 37.3814 56.1253 37.487 55.8628C37.5926 55.6004 37.5897 55.3067 37.4788 55.0464C37.2466 54.5052 37.1268 53.9223 37.1268 53.3334C37.1268 50.977 39.037 49.0667 41.3934 49.0667C43.0484 49.0585 44.5557 50.0175 45.2494 51.52C45.2725 51.5548 45.2974 51.5882 45.3241 51.6203C45.341 51.6569 45.3598 51.6925 45.3806 51.727C45.3998 51.7504 45.4276 51.7611 45.4489 51.7835C45.4989 51.8355 45.5544 51.8819 45.6142 51.9222C45.6675 51.9632 45.7247 51.9989 45.7849 52.0288C45.8469 52.0548 45.9111 52.0748 45.9769 52.0886C46.0425 52.1058 46.1097 52.1162 46.1774 52.1195C46.316 52.1184 46.4535 52.0954 46.5849 52.0512C46.6133 52.046 46.6415 52.0392 46.6692 52.031C46.7038 52.0086 46.7369 51.984 46.7684 51.9574C46.8068 51.9403 46.8442 51.9211 46.8804 51.8998C47.4407 51.4467 48.1395 51.1996 48.8601 51.2C50.1073 51.2021 51.2397 51.9285 51.7614 53.0614C52.0059 53.5975 52.6387 53.8339 53.1748 53.5894C53.7109 53.3449 53.9473 52.7121 53.7028 52.176C52.8342 50.2829 50.943 49.0686 48.8601 49.0667Z" fill="#472880"/>
<path d="M27.8632 41.6544C27.7021 41.7067 23.9336 43.0101 23.9336 46.9333C23.9336 47.5224 24.4112 48 25.0003 48C25.5894 48 26.0669 47.5224 26.0669 46.9333C26.154 45.4454 27.133 44.1581 28.5437 43.6768C29.1034 43.4889 29.4047 42.8829 29.2168 42.3232C29.0289 41.7636 28.4228 41.4622 27.8632 41.6501V41.6544Z" fill="#472880"/>
<path d="M42.8702 40.5013C42.9549 40.5228 43.042 40.5336 43.1294 40.5333C43.6182 40.5328 44.0442 40.2 44.163 39.7258C44.6539 37.734 46.4172 36.3172 48.4681 36.2666C49.0572 36.2652 49.5335 35.7864 49.532 35.1973C49.5306 34.6082 49.0518 34.1318 48.4627 34.1333C45.4309 34.1736 42.811 36.2612 42.0947 39.2074C41.9516 39.7789 42.2988 40.3581 42.8702 40.5013Z" fill="#472880"/>
</g>
<ellipse cx="13.5" cy="56" rx="13.5" ry="14" fill="#E30020"/>
<defs>
<clipPath id="clip0">
<rect x="9" width="64" height="64" fill="white"/>
</clipPath>
</defs>
</svg>

<svg width="73" height="70" fill="none" xmlns="http://www.w3.org/2000/svg"><g clip-path="url(#clip0)" fill="#472880"><path d="M64.218 46.933c.339-1.798.33-3.645-.026-5.44l4.886-11.79v-.023a20.033 20.033 0 013.429-5.954 1.59 1.59 0 00.394-1.456l-2.004-8.65a1.045 1.045 0 00-.106-.259c-.009-.016-.012-.035-.02-.05-.009-.015-.046-.051-.068-.079a1.075 1.075 0 00-.15-.176.988.988 0 00-.116-.07 1.078 1.078 0 00-.166-.1 1.016 1.016 0 00-.25-.061c-.024 0-.045-.016-.07-.019a1.067 1.067 0 00-.587.132c-.016.008-.036.011-.052.021h-.01l-7.532 4.7c-.456.283-.74.776-.753 1.313a20.02 20.02 0 01-1.793 6.648v.012l-2.442 5.902a14.303 14.303 0 00-3.81-1.376 57.63 57.63 0 00.553-10.489 11.642 11.642 0 002.647-8.546C55.505 4.907 49.887.417 49.647.228a1.067 1.067 0 00-1.69 1.113c.549 2.063.073 4.24-3.984 8.717a6.242 6.242 0 00-1.463 6.802c.36.9.873 1.73 1.52 2.453a74.72 74.72 0 00-.601 4.729 53.426 53.426 0 00-.186 7.564 14.517 14.517 0 00-2.656 1.851l-5.173-22.123c0-.022-.022-.038-.028-.058a1.01 1.01 0 00-.075-.206l-5.284-9.76A2.463 2.463 0 0025.4 2.396l-.401 11.088c0 .08.009.16.026.238v.048l5.278 22.524c-.832.037-1.659.16-2.466.368L22.031 22.64a2.156 2.156 0 00-2.784-1.14l-8.873 3.673a2.14 2.14 0 00-1.155 2.788l7.874 18.995A8.528 8.528 0 0017.533 64h46.932a8.534 8.534 0 00-.247-17.067zm-1.087-27.61l4.472-2.79-1.583 3.823a1.067 1.067 0 101.97.817l1.584-3.823 1.185 5.134a21.1 21.1 0 00-3.094 5.106 4.387 4.387 0 01-5.962-2.466 21.073 21.073 0 001.428-5.8zm-2.453 8.375a6.498 6.498 0 002.659 1.936 6.768 6.768 0 002.61.55c.216 0 .432-.013.646-.039l-3.403 8.213a14.477 14.477 0 00-4.58-5.662l2.068-4.998zM46.064 20.08l5.36.328c.032.996.02 2.026-.012 3.073a22.42 22.42 0 01-5.344-.259c-.135-.019-.266-.034-.4-.052.107-1.005.237-2.022.394-3.09h.002zm-.508-8.59c2.832-3.124 4.3-5.527 4.64-7.787a14.265 14.265 0 013.85 7.646 9.557 9.557 0 01-2.159 6.947c-2.107-.128-4.19-.256-6.251-.384a4.45 4.45 0 01-.083-6.422h.003zm-.081 13.806l.309.04c1.374.213 2.762.331 4.152.354.442 0 .907-.036 1.373-.072a67.1 67.1 0 01-.457 4.288c-.264-.014-.522-.04-.787-.04-1.61.004-3.208.279-4.727.815a51.459 51.459 0 01.134-5.385h.002zM37.224 37.77l-3.052-13a1.067 1.067 0 00-2.077.487l2.743 11.7a12.09 12.09 0 00-2.326-.58L27.831 16.4a5.055 5.055 0 002.088.454c.067 0 .139-.01.207-.012l.754 3.22a1.067 1.067 0 102.077-.487l-.755-3.222a5.052 5.052 0 001.863-1.419l4.76 20.351a14.309 14.309 0 00-1.601 2.486zm-6.517-23.147a3.541 3.541 0 01-3.562-1.426l.135-3.757c.371.07.748.105 1.126.107.364.001.728-.04 1.083-.12a5.433 5.433 0 001.978-.984l1.796 3.315a3.538 3.538 0 01-2.556 2.867v-.002zm-2.922-12.46a.333.333 0 01.367.163l2.287 4.23a3.64 3.64 0 01-1.44.8 3.64 3.64 0 01-1.644-.078l.174-4.807a.33.33 0 01.256-.309zm-7.72 21.304l.815 1.969-3.946 1.634a1.067 1.067 0 00.819 1.969l3.947-1.635.816 1.971-1.975.818a1.067 1.067 0 10.817 1.971l1.975-.818.816 1.971-3.95 1.638a1.067 1.067 0 10.817 1.97l3.947-1.633.862 2.083a12.383 12.383 0 00-6.906 8.406l-7.731-18.64 8.877-3.674zm44.4 38.4H17.532a6.4 6.4 0 111.825-12.536 1.067 1.067 0 001.375-1.001 10.133 10.133 0 0116.213-7.903 1.067 1.067 0 001.636-.48 12.267 12.267 0 0123.751 4.32c.002 1.22-.18 2.433-.539 3.599a1.067 1.067 0 001.248 1.356 6.667 6.667 0 011.424-.155 6.4 6.4 0 110 12.8z"/><path d="M50.263 16.747c.335 0 .651-.155.854-.422a8 8 0 001.418-6.28 1.067 1.067 0 10-2.06.55 5.926 5.926 0 01-1.059 4.443 1.067 1.067 0 00.854 1.706l-.007.003zm-1.403 32.32a5.244 5.244 0 00-2.288.533 6.4 6.4 0 00-11.056 6.283 1.066 1.066 0 101.963-.837 4.345 4.345 0 01-.352-1.713 4.267 4.267 0 014.266-4.266 4.224 4.224 0 013.856 2.453c.023.035.048.068.075.1a.993.993 0 00.057.107c.019.023.047.034.068.056.05.053.105.099.165.14.053.04.11.076.17.106.063.026.127.046.193.06a.978.978 0 00.2.03 1.31 1.31 0 00.408-.068.814.814 0 00.084-.02.975.975 0 00.1-.074c.038-.017.075-.036.111-.057a3.15 3.15 0 011.98-.7 3.2 3.2 0 012.901 1.861 1.067 1.067 0 001.942-.885 5.333 5.333 0 00-4.843-3.11zm-20.997-7.413c-.16.053-3.93 1.356-3.93 5.28a1.067 1.067 0 002.134 0 3.667 3.667 0 012.477-3.257 1.069 1.069 0 10-.68-2.027v.004zm15.007-1.153a1.067 1.067 0 001.293-.776 4.55 4.55 0 014.305-3.458 1.066 1.066 0 10-.005-2.134 6.644 6.644 0 00-6.368 5.074 1.067 1.067 0 00.775 1.294z"/></g><ellipse cx="13.5" cy="56" rx="13.5" ry="14" fill="#E30020"/><defs><clipPath id="clip0"><path fill="#fff" d="M9 0h64v64H9z"/></clipPath></defs></svg>
